icons/lines/smileys.svg

<svg xmlns="http://www.w3.org/2000/svg" width="24" height="24" viewBox="0 0 24 24" fill="none" stroke="currentColor" stroke-width="2" stroke-linecap="round" stroke-linejoin="round" >
  <path d="M14 6.19995V10C11.21 10.05 10.05 11.21 10 14H6.2C3.2 14 2 12.8 2 9.80005V6.19995C2 3.19995 3.2 2 6.2 2H9.8C12.8 2 14 3.19995 14 6.19995Z"/>
  <path d="M6.96019 5.86996C6.43019 5.50996 5.7302 5.50998 5.2002 5.88998" stroke-miterlimit="10"/>
  <path d="M10.9602 5.86996C10.4302 5.50996 9.7302 5.50998 9.2002 5.88998" stroke-miterlimit="10"/>
  <path d="M8.15981 11.42H5.83981C5.53981 11.42 5.2998 11.18 5.2998 10.88C5.2998 9.39 6.50981 8.18005 7.99981 8.18005C8.63981 8.18005 9.2298 8.40002 9.6898 8.77002" stroke-miterlimit="10"/>
  <path d="M22 14.2V17.8C22 20.8 20.8 22 17.8 22H14.2C11.2 22 10 20.8 10 17.8V14C10.05 11.21 11.21 10.05 14 10H17.8C20.8 10 22 11.2 22 14.2Z"/>
  <path d="M14.9602 13.62C14.4302 13.98 13.7302 13.98 13.2002 13.6" stroke-miterlimit="10"/>
  <path d="M18.9602 13.62C18.4302 13.98 17.7302 13.98 17.2002 13.6" stroke-miterlimit="10"/>
  <path d="M13.8398 16.1801H18.1598C18.4598 16.1801 18.6998 16.42 18.6998 16.72C18.6998 18.21 17.4898 19.42 15.9998 19.42C14.5098 19.42 13.2998 18.21 13.2998 16.72C13.2998 16.42 13.5398 16.1801 13.8398 16.1801Z" stroke-miterlimit="10"/>
  </svg>

<svg xmlns="http://www.w3.org/2000/svg" width="24" height="24" viewBox="0 0 24 24" fill="none" stroke="currentColor" stroke-width="2" stroke-linecap="round" stroke-linejoin="round">
  <path d="M10.96 5.87a1.53 1.53 0 0 0-1.76.02" />
  <path d="M14 10c-2.79.05-3.95 1.21-4 4H6.2C3.2 14 2 12.8 2 9.8V6.2C2 3.2 3.2 2 6.2 2h3.6c3 0 4.2 1.2 4.2 4.2z" />
  <path d="M14.96 13.62a1.53 1.53 0 0 1-1.76-.02" />
  <path d="M18.16 16.18a.54.54 0 0 1 .54.54 1 1 0 1 1-5.4 0 .54.54 0 0 1 .54-.54z" />
  <path d="M18.96 13.62a1.53 1.53 0 0 1-1.76-.02" />
  <path d="M22 17.8c0 3-1.2 4.2-4.2 4.2h-3.6c-3 0-4.2-1.2-4.2-4.2V14c.05-2.79 1.21-3.95 4-4h3.8c3 0 4.2 1.2 4.2 4.2z" />
  <path d="M6.96 5.87a1.53 1.53 0 0 0-1.76.02" />
  <path d="M8.16 11.42H5.84a.54.54 0 0 1-.54-.54 2.7 2.7 0 0 1 4.39-2.11" />
</svg>
